X: 2
T: the Road To Boston v.2
P: piffero secondo a0267
O: mcv,mod
%R: march, song
S: http://ancients.sudburymuster.org/mus/sng/pdf/redhorseC0.pdf
Z: 2020 John Chambers <jc:trillian.mit.edu>
M: 2/4
L: 1/16
K: D
z2 |\
d2A2 d2(cd | e2)d2 c2B2 | E2F2  G2(AG | F2)E2 D2E2 |\
d2A2 d2(cd | e2)d2 c2B2 | E2F2  G2(A2 | F4)   F2  :|
|: d2 |\
f2d2 f2(ef | g2)f2 e2d2  | e2c2 e2(de | f2)e2 d2c2 |\
d2A2 d2(cd | e2)d2 c2B2  | E2F2 G2(AG | F4)   F2  :|
